src/assets/outline/ForwardItem.svg

<svg width="24" height="24" viewBox="0 0 24 24"  xmlns="http://www.w3.org/2000/svg">
<path d="M13.6201 18.1304H10.3901C7.26012 18.1304 5.87012 16.7404 5.87012 13.6104V10.3804C5.87012 7.25037 7.26012 5.86035 10.3901 5.86035H13.6201C16.7501 5.86035 18.1401 7.25037 18.1401 10.3804V13.6104C18.1301 16.7404 16.7401 18.1304 13.6201 18.1304ZM10.3801 7.37036C8.09012 7.37036 7.36012 8.10038 7.36012 10.3904V13.6204C7.36012 15.9104 8.09012 16.6404 10.3801 16.6404H13.6101C15.9001 16.6404 16.6301 15.9104 16.6301 13.6204V10.3904C16.6301 8.10038 15.9001 7.37036 13.6101 7.37036H10.3801Z" />
<path d="M18.23 13.52H17.38C16.97 13.52 16.63 13.18 16.63 12.77V10.39C16.63 8.10001 15.9 7.37 13.61 7.37H11.23C10.82 7.37 10.48 7.02999 10.48 6.62V5.76999C10.48 2.63999 11.87 1.25 15 1.25H18.23C21.36 1.25 22.75 2.63999 22.75 5.76999V9C22.75 12.13 21.36 13.52 18.23 13.52ZM18.13 12.02H18.23C20.52 12.02 21.25 11.29 21.25 9V5.76999C21.25 3.47999 20.52 2.75 18.23 2.75H15C12.71 2.75 11.98 3.47999 11.98 5.76999V5.87H13.61C16.74 5.87 18.13 7.26001 18.13 10.39V12.02Z" />
<path d="M9 22.7505H5.77C2.64 22.7505 1.25 21.3605 1.25 18.2305V15.0005C1.25 11.8705 2.64 10.4805 5.77 10.4805H6.62C7.03 10.4805 7.37 10.8205 7.37 11.2305V13.6104C7.37 15.9004 8.1 16.6305 10.39 16.6305H12.77C13.18 16.6305 13.52 16.9705 13.52 17.3805V18.2305C13.52 21.3605 12.13 22.7505 9 22.7505ZM5.77 11.9805C3.48 11.9805 2.75 12.7105 2.75 15.0005V18.2305C2.75 20.5205 3.48 21.2505 5.77 21.2505H9C11.29 21.2505 12.02 20.5205 12.02 18.2305V18.1305H10.39C7.26 18.1305 5.87 16.7404 5.87 13.6104V11.9805H5.77Z" />
</svg>

<?xml version="1.0" encoding="UTF-8"?>
<svg width="24" height="24" viewBox="0 0 24 24" xmlns="http://www.w3.org/2000/svg">
 <path d="m13.62 18.13h-3.23c-3.13 0-4.52-1.39-4.52-4.52v-3.23c0-3.13 1.39-4.52 4.52-4.52h3.23c3.13 0 4.52 1.39 4.52 4.52v3.23c-0.01 3.13-1.4 4.52-4.52 4.52zm-3.24-10.76c-2.29 0-3.02 0.73002-3.02 3.02v3.23c0 2.29 0.73 3.02 3.02 3.02h3.23c2.29 0 3.02-0.73 3.02-3.02v-3.23c0-2.29-0.73-3.02-3.02-3.02h-3.23z"/>
 <path d="m18.23 13.52h-0.85c-0.41 0-0.75-0.34-0.75-0.75v-2.38c0-2.29-0.73-3.02-3.02-3.02h-2.38c-0.41 0-0.75-0.34001-0.75-0.75v-0.85001c0-3.13 1.39-4.52 4.52-4.52h3.23c3.13 0 4.52 1.39 4.52 4.52v3.23c0 3.13-1.39 4.52-4.52 4.52zm-0.1-1.5h0.1c2.29 0 3.02-0.73 3.02-3.02v-3.23c0-2.29-0.73-3.02-3.02-3.02h-3.23c-2.29 0-3.02 0.72999-3.02 3.02v0.10001h1.63c3.13 0 4.52 1.39 4.52 4.52v1.63z"/>
 <path d="m9 22.75h-3.23c-3.13 0-4.52-1.39-4.52-4.52v-3.23c0-3.13 1.39-4.52 4.52-4.52h0.85c0.41 0 0.75 0.34 0.75 0.75v2.3799c0 2.29 0.73 3.0201 3.02 3.0201h2.38c0.41 0 0.75 0.34 0.75 0.75v0.85c0 3.13-1.39 4.52-4.52 4.52zm-3.23-10.77c-2.29 0-3.02 0.73-3.02 3.02v3.23c0 2.29 0.73 3.02 3.02 3.02h3.23c2.29 0 3.02-0.73 3.02-3.02v-0.1h-1.63c-3.13 0-4.52-1.3901-4.52-4.5201v-1.6299h-0.1z"/>
</svg>
